!!!COM: Anonymous
!!!OTL@@POL: Każde stworzenie śpiewaj
!!!TXO: Polish
!!!ODT: 
!!!GTL: Hymnbook L 1642
!!!ARL: Biblioteka Diecezjalna w Sandomierzu 
!!!voices:	4
**kern	**text	**kern	**text	**kern	**text	**kern	**text
*staff4	*staff4	*staff3	*staff3	*staff2	*staff2	*staff1	*staff1
*I"Basso	*	*I"Canto III	*	*I"Canto II	*	*I"Canto I	*
=1-	=1-	=1-	=1-	=1-	=1-	=1-	=1-
*clefF4	*	*clefG2	*	*clefG2	*	*clefG2	*
*k[]	*	*k[]	*	*k[]	*	*k[]	*
*met(c|)	*	*met(c|)	*	*met(c|)	*	*met(c|)	*
*M2/2	*	*M2/2	*	*M2/2	*	*M2/2	*
2r	.	2r	.	2r	.	2r	.
2D\	Ka-	2f/	Ka-	2a/	Ka-	2dd\	Ka-
=2	=2	=2	=2	=2	=2	=2	=2
2D\	-żde	2a/	-żde	2dd\	-żde	2ff\	-żde
[2AA/	stwo-	[2a/	stwo-	[2cc\	stwo-	[2ee\	stwo-
=3	=3	=3	=3	=3	=3	=3	=3
4AA/]	.	4a/]	.	4cc\]	.	4ee\]	.
4AA/	-rze-	4a/	-rze-	4cc\	-rze-	4ff\	-rze-
2BB-/	-nie	2f/	-nie	2a/	-nie	2dd\	-nie
=4	=4	=4	=4	=4	=4	=4	=4
1GG	śpie-	1g	śpie-	1b-	śpie-	1dd	śpie-
=5	=5	=5	=5	=5	=5	=5	=5
1AA	-waj	1e	-waj	1a	-waj	1cc#	-waj
=6	=6	=6	=6	=6	=6	=6	=6
2r	.	2r	.	2r	.	2r	.
2AA/	a	2a/	a	2cc\	a	2ee\	a
=7	=7	=7	=7	=7	=7	=7	=7
2D\	dziś	2a/	dziś	2dd\	dziś	2ff\	dziś
2F\	za-	[2a/	za-	2a/	za-	2dd\	za-
=8	=8	=8	=8	=8	=8	=8	=8
1E	-wo-	2a/]	.	1b	-wo-	1ee	-wo-
.	.	2g#i/	-wo-	.	.	.	.
=9	=9	=9	=9	=9	=9	=9	=9
1AA	-łaj	1a	-łaj	1cc#	-łaj	1ee	-łaj
=10	=10	=10	=10	=10	=10	=10	=10
2r	.	2r	.	2r	.	2r	.
2AA/	Je-	2e/	Je-	2a/	Je-	2cc#\	Je-
=11	=11	=11	=11	=11	=11	=11	=11
1D	-zu	1f	-zu	1a	-zu	1dd	-zu
=12	=12	=12	=12	=12	=12	=12	=12
2r	.	2r	.	2r	.	2r	.
2GG/	Je-	2g/	Je-	2b-\	Je-	2dd\	Je-
=13	=13	=13	=13	=13	=13	=13	=13
1D	-zu	1f	-zu	1a	-zu	1dd	-zu
=14	=14	=14	=14	=14	=14	=14	=14
2r	.	2r	.	2r	.	2r	.
2D\	Je-	2a/	Je-	2dd\	Je-	2ff\	Je-
=15	=15	=15	=15	=15	=15	=15	=15
2F\	-zu	2.a/	-zu	2.cc\	-zu	2ff\	-zu
2F\	Pa-	.	.	.	.	2ff\	Pa-
.	.	4a/	Pa-	4cc\	Pa-	.	.
=16	=16	=16	=16	=16	=16	=16	=16
2C/	-nie	2.g/	-nie	2cc\	-nie	2ee\	-nie
2D\	ła-	.	.	2a/	ła-	2dd\	ła-
.	.	4f/	ła-	.	.	.	.
=17	=17	=17	=17	=17	=17	=17	=17
2AA/	-ska-	2e/	-ska-	2a/	-ska-	2cc#\	-ska-
2D\	-wy	2f/	-wy	2a/	-wy	2dd\	-wy
=18	=18	=18	=18	=18	=18	=18	=18
2C/	Bo-	2.g/	Bo-	2.cc\	Bo-	2.ee\	Bo-
2D\	-że	.	.	.	.	.	.
.	.	4f/	-że	4a/	-że	4dd\	-że
=19	=19	=19	=19	=19	=19	=19	=19
1AA	pra-	1e	pra-	1a	pra-	1cc#	pra-
=20	=20	=20	=20	=20	=20	=20	=20
1AA	-wy	1e	-wy	1a	-wy	1cc#i	-wy
=21	=21	=21	=21	=21	=21	=21	=21
2r	.	2r	.	2r	.	2r	.
2AA/	k~To-	2c#/	k~To-	2a/	k~To-	2ee\	k~To-
=22	=22	=22	=22	=22	=22	=22	=22
2D\	-bie	2d/	-bie	2a/	-bie	2ff\	-bie
2C#/	wo-	2e/	wo-	2a/	wo-	2ee\	wo-
=23	=23	=23	=23	=23	=23	=23	=23
1D	-ła-	1f	-ła-	1a	-ła-	1dd	-ła-
=24	=24	=24	=24	=24	=24	=24	=24
1AA	-my	1e	-my	1a	-my	1cc#	-my
=25	=25	=25	=25	=25	=25	=25	=25
2.AA/	zmi-	2a/	zmi-	2cc#\	zmi-	2ee\	zmi-
.	.	2a/	-łuj	2cc#\	-łuj	2ee\	-łuj
4AA/	-łuj	.	.	.	.	.	.
=26	=26	=26	=26	=26	=26	=26	=26
2D\	się	2.a/	się	2.dd\	się	2ff\	się
2C/	nad	.	.	.	.	2ee\	nad
.	.	4g/	nad	4cc\	nad	.	.
=27	=27	=27	=27	=27	=27	=27	=27
2D\	na-	2f/	na-	2a/	na-	2dd\	na-
2AA/	-mi	2e/	-mi	2a/	-mi	2cc#\	-mi
=28	=28	=28	=28	=28	=28	=28	=28
2r	.	2r	.	2r	.	2r	.
2FF/	twe-	2a/	twe-	2cc\	twe-	2ff\	twe-
=29	=29	=29	=29	=29	=29	=29	=29
2GG/	-mi	4g/	-mi	2b-\	-mi	2dd\	-mi
.	.	4f/	.	.	.	.	.
2BB-/	słu-	4e/	słu-	2b-\	słu-	2dd\	słu-
.	.	4d/	.	.	.	.	.
=30	=30	=30	=30	=30	=30	=30	=30
1AA	-ga-	1e	-ga-	1a	-ga-	1cc#	-ga-
=31	=31	=31	=31	=31	=31	=31	=31
[1D	-mi.	[1d	-mi.	[1a	-mi.	[1dd	-mi.
=32	=32	=32	=32	=32	=32	=32	=32
1D]	.	1d]	.	1a]	.	1dd]	.
==	==	==	==	==	==	==	==
*-	*-	*-	*-	*-	*-	*-	*-
!!!GTL: Hymnbook L 1642
!!!EFL: 24/39
!!!YEM: Creative Commons CC/BY/NC/SA 4.0
!!!ENC: Marcin Konik
!!!END: 2015-02-19 
!!!EED: Marcin Konik
!!!EEV: 
!!!ONB: Translated from MusicXML and edited by Marcin Konik
!!!CharacterEncoding: utf-8
!!!RDF**kern: i=editorial accidental
!!muse2ps: z14jc180F
!!title: @{OTL}, @{GTL}: @{pag}, ed. @{ENC}
